X:14
T:GRLBHND- Brighton Camp, or the Girl I left Behind Me
S:from 'Riley's Flute Melodies', I, #349 (1816)
Q:1/4=60
L:1/4
M:C
K:G
e/|d3/4B/4  B3/4A/4 B3/4G/4E|{D/E/F/}G/G/ G/4A/4 B/4c/4dB3/4d/4|\
d3/4B/4 B3/4A/4 B3/4G/4 E3/4G/4|F/A/ (D/4E/4F/4D/4)GG/::A/|\
B/d/e/f/ g/d/B/G/|B/d/e/g/ gf/a/|g/f/g/e/ d/B/ B/G/|\
F/A/ (D/4E/4F/4D/4)GG/|]

